build/img/icon-logo.svg

<svg width="272" height="28" viewBox="0 0 272 28" fill="none" xmlns="http://www.w3.org/2000/svg">
<path d="M161.122 17.1392V10.8608C161.122 5.29649 161.122 4.2848 161.048 3.15409C160.973 1.93411 160.689 1.36876 159.51 1.11583C159.226 1.04145 158.614 1.01169 158.286 1.01169C158.137 1.01169 158.002 0.937301 158.002 0.803401C158.002 0.595112 158.182 0.520723 158.57 0.520723C160.182 0.520723 162.301 0.624867 162.51 0.624867C162.839 0.624867 164.914 0.520723 165.988 0.520723C166.376 0.520723 166.556 0.595112 166.556 0.803401C166.556 0.952179 166.406 1.01169 166.272 1.01169C166.018 1.01169 165.809 1.04145 165.376 1.11583C164.406 1.29437 164.122 1.90436 164.048 3.15409C163.973 4.29968 163.973 5.29649 163.973 10.8608V13.0032C164.72 12.3188 171.213 5.7577 172.497 4.35919C173.497 3.31775 174.437 2.39532 174.437 1.78533C174.437 1.35388 174.258 1.14559 173.974 1.04145C173.795 0.967056 173.646 0.892667 173.646 0.758767C173.646 0.580234 173.825 0.505845 174.079 0.505845C174.795 0.505845 175.9 0.609989 176.766 0.609989C176.945 0.609989 179.303 0.505845 180.199 0.505845C180.587 0.505845 180.736 0.580234 180.736 0.758767C180.736 0.937301 180.662 1.01169 180.378 1.01169C179.841 1.01169 179.094 1.19022 178.378 1.51753C176.915 2.15728 176.124 3.04995 174.512 4.58236C173.616 5.44527 167.377 11.5154 166.63 12.4081C167.556 13.4495 175.019 21.1265 176.482 22.4803C179.497 25.2625 180.094 25.8427 181.826 26.5569C182.751 26.9437 183.796 27.0181 184.05 27.0181C184.304 27.0181 184.513 27.0925 184.513 27.2264C184.513 27.4049 184.334 27.509 183.722 27.509H181.901C180.9 27.509 180.214 27.509 179.423 27.4346C177.527 27.2561 176.631 26.4676 175.094 25.2625C173.482 23.9384 165.884 15.7705 164.167 13.6578L163.988 17.1541C163.988 20.576 163.988 23.4028 164.167 24.9054C164.272 25.9469 164.496 26.7205 165.57 26.8693C166.078 26.9437 166.645 27.0181 166.974 27.0181C167.183 27.0181 167.257 27.1222 167.257 27.2264C167.257 27.4049 167.078 27.509 166.69 27.509H159.137C158.749 27.509 158.57 27.4346 158.57 27.2264C158.57 27.1222 158.644 27.0181 158.853 27.0181C159.182 27.0181 159.6 26.9437 159.928 26.8693C160.645 26.7205 160.824 25.9469 160.973 24.9054C161.122 23.3879 161.122 20.5611 161.122 17.1392ZM48.9457 16.068V10.8608C48.9457 5.29649 48.9457 4.2848 48.871 3.15409C48.7964 1.93411 48.5128 1.36876 47.3336 1.11583C47.0499 1.04145 46.4379 1.01169 46.1095 1.01169C45.9603 1.01169 45.8259 0.937301 45.8259 0.803401C45.8259 0.595112 46.0051 0.520723 46.3932 0.520723C48.0053 0.520723 50.1846 0.624867 50.513 0.624867C50.8414 0.624867 52.9909 0.520723 54.0656 0.520723C54.4537 0.520723 54.6329 0.595112 54.6329 0.803401C54.6329 0.952179 54.4836 1.01169 54.3493 1.01169C54.0955 1.01169 53.8865 1.04145 53.4536 1.11583C52.4834 1.26461 52.1998 1.90436 52.1251 3.15409C52.0505 4.29968 52.0505 5.29649 52.0505 10.8608V15.8597C52.0505 21.0074 53.1999 23.2094 54.7374 24.6823C56.4987 26.3188 58.1109 26.6461 60.1409 26.6461C62.3203 26.6461 64.4698 25.6047 65.7684 24.0723C67.4104 22.034 67.8433 18.9989 67.8433 15.3241V10.8608C67.8433 5.29649 67.8433 4.2848 67.7686 3.15409C67.694 1.93411 67.4104 1.36876 66.2311 1.11583C65.9475 1.04145 65.3355 1.01169 65.0071 1.01169C64.8579 1.01169 64.7235 0.937301 64.7235 0.803401C64.7235 0.595112 64.9026 0.520723 65.2907 0.520723C66.9029 0.520723 68.8732 0.624867 69.0822 0.624867C69.336 0.624867 71.0227 0.520723 72.0975 0.520723C72.4856 0.520723 72.6647 0.595112 72.6647 0.803401C72.6647 0.952179 72.5154 1.01169 72.3811 1.01169C72.1273 1.01169 71.9183 1.01169 71.4855 1.11583C70.5152 1.29437 70.2316 1.90436 70.157 3.15409C70.0823 4.29968 70.0823 5.29649 70.0823 10.8608V14.6844C70.0823 18.5377 69.6494 22.8225 66.7835 25.3666C64.2011 27.6578 61.5142 28.0149 59.4095 28.0149C58.1855 28.0149 54.5732 27.8661 52.0356 25.4857C50.319 23.7747 48.9457 21.2752 48.9457 16.068ZM83.7853 14.7885V18.7163C83.7853 22.5399 83.8898 24.6823 84.2481 25.1732C84.7854 25.8874 86.1139 26.6015 90.3383 26.6015C97.2943 26.6015 101.728 22.0638 101.728 14.7439C101.728 6.54623 97.0405 1.59192 87.6813 1.59192L81.2029 1.35388C80.6059 1.339 79.3669 1.32412 79.3669 1.32412C79.1729 1.0712 79.1132 0.490967 79.5013 0.490967H89.0098C97.5032 0.490967 104.952 3.8831 104.952 13.6281C104.952 21.2008 99.8319 27.6132 90.2338 27.6132C87.1588 27.6132 79.8446 27.4793 78.7698 27.4793C78.3817 27.4793 78.2026 27.4049 78.2026 27.1966C78.2026 27.0925 78.2773 26.9883 78.4862 26.9883C78.8146 26.9883 79.2326 26.9586 79.561 26.8395C80.1282 26.661 80.3073 26.3337 80.5312 25.3071C80.7104 24.3847 80.785 21.3347 80.785 16.9756V14.7885H83.7853ZM7.94117 27.8959C7.37394 27.9554 6.76194 28 6.135 28C4.19449 28 2.29876 27.7471 0.612007 27.0329C0.044781 26.78 0 26.6312 0 25.6791C0 23.8937 0.164197 22.4655 0.208978 21.9001C0.253759 21.5133 0.328394 21.3347 0.537372 21.3347C0.791132 21.3347 0.820986 21.4389 0.820986 21.7216C0.820986 22.0489 0.820986 22.5399 0.940402 23.0457C1.55241 25.6939 4.28405 26.6908 7.03062 26.6908C7.34409 26.6908 7.64263 26.6759 7.94117 26.6461V27.8959ZM14.8822 4.56748C14.8822 5.13284 14.7927 5.38576 14.5986 5.38576C14.3449 5.38576 14.315 5.20723 14.2702 4.92455C14.2254 4.49309 13.9717 3.54091 13.7329 3.13921C13.4791 2.75239 12.2252 1.24973 8.43376 1.24973C5.59763 1.24973 3.3735 2.78215 3.3735 5.38576C3.3735 7.42402 4.4781 8.67375 8.40391 11.3815L10.837 13.0627C12.4043 14.1488 13.897 15.2795 14.7031 16.5292H9.74734C9.32938 16.2019 8.86664 15.8597 8.3442 15.4878L6.49325 14.1785C2.11964 11.0691 0.686643 8.85228 0.686643 6.42721C0.686643 2.60361 3.98551 0 9.20997 0C10.8221 0 12.1655 0.148778 13.1955 0.357067C13.9717 0.505845 14.3001 0.5356 14.6434 0.5356C14.9718 0.5356 15.0614 0.609989 15.0614 0.788523C15.0464 0.967056 14.8822 2.1424 14.8822 4.56748ZM32.5558 2.03826V17.1392C32.5558 20.5611 32.5558 23.3879 32.7349 24.8905C32.8394 25.932 33.0633 26.7056 34.1381 26.8544C34.6456 26.9288 35.4218 27.0032 35.7502 27.0032C35.9592 27.0032 36.0338 27.1073 36.0338 27.2115C36.0338 27.39 35.8547 27.4942 35.4666 27.4942H27.5553C27.1672 27.4942 26.988 27.4198 26.988 27.2115C26.988 27.1073 27.0627 27.0032 27.2717 27.0032C27.6 27.0032 28.018 26.9288 28.3464 26.8544C29.0629 26.7056 29.242 25.932 29.3913 24.8905C29.5704 23.3879 29.5704 20.576 29.5704 17.1392V2.03826H29.2271L24.2713 2.11265C22.0472 2.1424 21.1964 2.39532 20.6142 3.25824C20.2261 3.86823 20.1067 4.12115 20.0022 4.35919C19.8977 4.64187 19.7932 4.71626 19.6439 4.71626C19.5395 4.71626 19.4648 4.61211 19.4648 4.38895C19.4648 4.03188 20.1813 1.26461 20.256 0.967056C20.3157 0.758767 20.45 0.297556 20.5993 0.297556C20.853 0.297556 21.2113 0.357067 22.1815 0.431456C23.2264 0.5356 24.5848 0.609989 25.0177 0.609989H38.452C40.7507 0.609989 41.7061 0.550478 42.0046 0.550478C42.1837 0.550478 42.1837 0.758767 42.1837 0.981934C42.1837 2.05313 42.2285 4.22529 42.2285 4.61211C42.2285 4.93943 42.124 5.07333 41.9748 5.07333C41.7956 5.07333 41.6911 4.96918 41.6464 4.46334L41.5867 4.07651C41.4374 3.00531 40.5268 2.18703 37.0936 2.11265L32.9141 2.03826H32.5558ZM116.341 10.8608V17.1392C116.341 20.5611 116.341 23.3879 116.52 24.8905C116.625 25.932 116.849 26.7056 117.923 26.8544C118.431 26.9288 119.207 27.0032 119.536 27.0032C119.744 27.0032 119.819 27.1073 119.819 27.2115C119.819 27.39 119.64 27.4942 119.252 27.4942H111.341C110.952 27.4942 110.773 27.4198 110.773 27.2115C110.773 27.1073 110.848 27.0032 111.057 27.0032C111.385 27.0032 111.803 26.9734 112.132 26.8544C112.699 26.6759 112.878 26.3486 113.102 25.322C113.281 24.3996 113.356 21.4984 113.356 17.1392V10.8608C113.356 4.86504 113.326 3.36238 113.251 2.75239C113.147 1.88948 112.923 1.35388 111.744 1.11583C111.46 1.04145 110.848 1.01169 110.52 1.01169C110.37 1.01169 110.236 0.937301 110.236 0.803401C110.236 0.595112 110.415 0.520723 110.803 0.520723C111.982 0.520723 114.669 0.624867 114.848 0.624867C115.028 0.624867 117.282 0.520723 118.356 0.520723C118.744 0.520723 118.924 0.595112 118.924 0.803401C118.924 0.952179 118.774 1.01169 118.64 1.01169C118.386 1.01169 118.177 1.04145 117.744 1.11583C116.774 1.29437 116.49 1.90436 116.416 3.15409C116.341 4.2848 116.341 5.28162 116.341 10.8608ZM127.984 13.8959H124.566C124.581 8.12327 128.82 0 138.672 0C146.733 0 152.748 5.07333 152.748 13.39C152.748 21.2157 147.345 27.7024 139.03 27.9851V26.6312H139.418C142.643 26.6312 149.3 24.7715 149.3 14.3868C149.3 5.81722 144.076 1.2051 138.403 1.2051C132.418 1.2051 127.939 5.13284 127.939 12.9586L127.984 13.8959ZM187.11 13.8959H183.692C183.722 8.10839 187.946 0 197.813 0C205.873 0 211.889 5.07333 211.889 13.39C211.889 21.2157 206.47 27.7024 198.156 27.9851V26.6312H198.559C201.783 26.6312 208.441 24.7715 208.441 14.3868C208.441 5.81722 203.216 1.2051 197.544 1.2051C191.558 1.2051 187.08 5.13284 187.08 12.9586L187.11 13.8959ZM249.699 23.5664C249.371 24.4591 249.192 25.322 249.192 25.9617C249.192 26.6759 249.938 27.0032 250.55 27.0032H250.908C251.162 27.0032 251.266 27.0776 251.266 27.2115C251.266 27.4198 251.057 27.4942 250.729 27.4942H243.892H243.37H240.832C238.832 27.4942 237.937 27.3156 236.996 26.8098C235.459 25.9915 234.205 24.2359 232.16 21.5579C230.652 19.594 228.936 17.0946 228.219 16.1573C228.07 16.0085 227.965 15.949 227.756 15.949L222.636 15.9936C222.457 15.9936 222.383 16.0978 222.383 16.2763V17.1392C222.383 20.5611 222.383 23.3879 222.562 24.8905C222.666 25.932 222.89 26.7056 223.965 26.8544C224.472 26.9288 225.249 27.0032 225.577 27.0032C225.786 27.0032 225.861 27.1073 225.861 27.2115C225.861 27.39 225.681 27.4942 225.293 27.4942H217.516C217.128 27.4942 216.949 27.4198 216.949 27.2115C216.949 27.1073 217.024 27.0032 217.233 27.0032C217.561 27.0032 217.979 26.9288 218.308 26.8544C219.024 26.7056 219.203 25.932 219.352 24.8905C219.532 23.3879 219.532 20.576 219.532 17.1392V14.9373H223.89C224.204 14.9522 226.846 14.8183 227.159 14.8183C228.025 14.8183 230.07 14.4463 230.906 13.881C232.16 13.0181 233.638 12.2891 233.638 8.79277C233.638 2.9458 229.697 1.66631 225.876 1.65143L224.472 1.6068L220.173 1.56217L218.173 1.54729C218.054 1.13071 218.039 0.550478 218.442 0.550478C220.054 0.550478 224.905 0.505845 226.025 0.505845C228.279 0.505845 232.07 0.714134 233.966 2.08289C234.862 2.72264 236.742 4.38895 237.026 6.82891C237.399 10.0128 236.25 13.5983 230.831 15.339C233.772 19.0882 236.086 22.1233 238.16 24.3252C240.101 26.3634 241.638 26.7503 242.534 26.899C243.027 26.9734 243.43 27.0032 243.683 27.0032C243.952 26.9883 244.355 26.9586 244.594 26.9288C246.236 26.7205 246.952 25.3518 247.609 23.5664L256.491 1.39851C256.894 0.208289 257.028 0 257.252 0C257.461 0 257.61 0.178533 258.043 1.27949C258.581 2.63337 264.954 17.3773 267.134 22.8076C268.418 25.9915 269.462 26.5569 270.209 26.7651C270.746 26.9437 271.284 26.9734 271.642 26.9734C271.851 26.9734 272 27.0032 272 27.1817C272 27.39 271.672 27.4644 271.284 27.4644C270.746 27.4644 268.134 27.4644 265.656 27.39C264.88 27.3751 264.551 27.4049 264.551 27.1966C264.551 27.0478 264.581 26.9883 264.835 26.899C264.91 26.8693 265.119 26.7205 265.119 26.3932C265.119 26.2891 265.119 26.0659 265.044 25.932L256.924 5.7577C256.819 5.47503 256.745 5.37088 256.64 5.37088C256.565 5.37088 256.461 5.51966 256.386 5.7577L249.699 23.5664Z" fill="#B1AFA9"/>
</svg>

<svg width="272" height="28" fill="none" xmlns="http://www.w3.org/2000/svg"><path d="M161.122 17.14v-6.28c0-5.564 0-6.575-.074-7.706-.075-1.22-.359-1.785-1.538-2.038-.284-.075-.896-.104-1.224-.104-.149 0-.284-.075-.284-.209 0-.208.18-.282.568-.282 1.612 0 3.731.104 3.94.104.329 0 2.404-.104 3.478-.104.388 0 .568.074.568.282 0 .15-.15.209-.284.209-.254 0-.463.03-.896.104-.97.178-1.254.788-1.328 2.038-.075 1.146-.075 2.142-.075 7.707v2.142c.747-.684 7.24-7.245 8.524-8.644 1-1.041 1.94-1.964 1.94-2.574 0-.431-.179-.64-.463-.744-.179-.074-.328-.148-.328-.282 0-.179.179-.253.433-.253.716 0 1.821.104 2.687.104.179 0 2.537-.104 3.433-.104.388 0 .537.074.537.253 0 .178-.074.253-.358.253-.537 0-1.284.178-2 .506-1.463.64-2.254 1.532-3.866 3.064-.896.863-7.135 6.933-7.882 7.826.926 1.042 8.389 8.719 9.852 10.072 3.015 2.782 3.612 3.363 5.344 4.077.925.387 1.97.461 2.224.461.254 0 .463.075.463.208 0 .179-.179.283-.791.283h-1.821c-1.001 0-1.687 0-2.478-.074-1.896-.179-2.792-.967-4.329-2.172-1.612-1.325-9.21-9.493-10.927-11.605l-.179 3.496c0 3.422 0 6.249.179 7.751.105 1.042.329 1.816 1.403 1.964.508.075 1.075.15 1.404.15.209 0 .283.103.283.207 0 .179-.179.283-.567.283h-7.553c-.388 0-.567-.074-.567-.283 0-.104.074-.208.283-.208.329 0 .747-.074 1.075-.149.717-.148.896-.922 1.045-1.964.149-1.517.149-4.344.149-7.766zM48.946 16.067V10.86c0-5.565 0-6.576-.075-7.707-.075-1.22-.358-1.785-1.537-2.038-.284-.075-.896-.104-1.225-.104-.149 0-.283-.075-.283-.209 0-.208.18-.282.567-.282 1.612 0 3.792.104 4.12.104.328 0 2.478-.104 3.553-.104.388 0 .567.074.567.282 0 .15-.15.209-.284.209-.253 0-.462.03-.895.104-.97.149-1.254.788-1.329 2.038-.075 1.146-.075 2.142-.075 7.707v4.999c0 5.147 1.15 7.35 2.687 8.822 1.762 1.637 3.374 1.964 5.404 1.964 2.18 0 4.329-1.041 5.627-2.574 1.642-2.038 2.075-5.073 2.075-8.748V10.86c0-5.565 0-6.576-.074-7.707-.075-1.22-.359-1.785-1.538-2.038-.283-.075-.895-.104-1.224-.104-.15 0-.284-.075-.284-.209 0-.208.18-.282.568-.282 1.612 0 3.582.104 3.791.104.254 0 1.94-.104 3.016-.104.388 0 .567.074.567.282 0 .15-.15.209-.284.209-.254 0-.463 0-.895.104-.97.178-1.254.788-1.329 2.038-.075 1.146-.075 2.142-.075 7.707v3.823c0 3.854-.433 8.139-3.298 10.683-2.583 2.29-5.27 2.648-7.375 2.648-1.224 0-4.836-.149-7.373-2.53-1.717-1.71-3.09-4.21-3.09-9.417zm34.84-1.28v3.928c0 3.824.104 5.966.462 6.457.537.714 1.866 1.429 6.09 1.429 6.956 0 11.39-4.538 11.39-11.858 0-8.198-4.688-13.152-14.047-13.152l-6.478-.238c-.597-.015-1.836-.03-1.836-.03-.194-.253-.254-.833.134-.833h9.509c8.493 0 15.942 3.392 15.942 13.137 0 7.573-5.12 13.985-14.718 13.985-3.075 0-10.39-.134-11.464-.134-.388 0-.567-.074-.567-.282 0-.104.074-.209.283-.209.329 0 .747-.03 1.075-.148.567-.179.746-.506.97-1.533.18-.922.254-3.972.254-8.331v-2.187h3zM7.94 27.897c-.567.06-1.18.104-1.806.104-1.94 0-3.836-.253-5.523-.967C.045 26.78 0 26.63 0 25.679c0-1.785.164-3.213.209-3.779.045-.387.12-.565.328-.565.254 0 .284.104.284.387 0 .327 0 .818.12 1.324.611 2.648 3.343 3.645 6.09 3.645.313 0 .612-.015.91-.045v1.25zm6.941-23.329c0 .566-.09.819-.283.819-.254 0-.284-.179-.329-.461-.045-.432-.298-1.384-.537-1.786-.254-.387-1.508-1.89-5.3-1.89-2.835 0-5.06 1.533-5.06 4.137 0 2.038 1.105 3.288 5.03 5.996l2.434 1.68c1.567 1.087 3.06 2.218 3.866 3.467H9.747c-.418-.327-.88-.67-1.403-1.041l-1.85-1.31C2.12 11.07.686 8.852.686 6.428.687 2.603 3.986 0 9.21 0c1.612 0 2.955.149 3.985.357.777.149 1.105.179 1.448.179.329 0 .418.074.418.253-.015.178-.179 1.353-.179 3.778zm17.674-2.529V17.14c0 3.422 0 6.249.179 7.752.104 1.041.328 1.815 1.403 1.963.508.075 1.284.15 1.612.15.21 0 .284.103.284.207 0 .179-.18.283-.567.283h-7.912c-.388 0-.567-.074-.567-.282 0-.105.075-.209.284-.209.328 0 .746-.074 1.074-.149.717-.148.896-.922 1.045-1.963.18-1.503.18-4.315.18-7.752V2.04h-.344l-4.956.074c-2.224.03-3.075.282-3.657 1.145-.388.61-.507.863-.612 1.101-.104.283-.209.357-.358.357-.104 0-.18-.104-.18-.327 0-.357.717-3.124.792-3.422.06-.208.194-.67.343-.67.254 0 .612.06 1.582.134 1.045.105 2.404.179 2.837.179h13.434c2.299 0 3.254-.06 3.553-.06.179 0 .179.209.179.432 0 1.071.044 3.243.044 3.63 0 .327-.104.461-.253.461-.18 0-.284-.104-.329-.61l-.06-.386c-.149-1.072-1.06-1.89-4.492-1.964l-4.18-.075h-.358zm83.785 8.823v6.278c0 3.422 0 6.249.179 7.752.105 1.041.329 1.815 1.403 1.963.508.075 1.284.15 1.613.15.208 0 .283.103.283.207 0 .179-.179.283-.567.283h-7.911c-.389 0-.568-.074-.568-.282 0-.105.075-.209.284-.209.328 0 .746-.03 1.075-.149.567-.178.746-.505.97-1.532.179-.922.254-3.824.254-8.183v-6.278c0-5.996-.03-7.499-.105-8.109-.104-.863-.328-1.398-1.507-1.636-.284-.075-.896-.104-1.224-.104-.15 0-.284-.075-.284-.209 0-.208.179-.282.567-.282 1.179 0 3.866.104 4.045.104.18 0 2.434-.104 3.508-.104.388 0 .568.074.568.282 0 .15-.15.209-.284.209-.254 0-.463.03-.896.104-.97.178-1.254.788-1.328 2.038-.075 1.13-.075 2.128-.075 7.707zm11.643 3.035h-3.418C124.581 8.123 128.82 0 138.672 0c8.061 0 14.076 5.073 14.076 13.39 0 7.826-5.403 14.312-13.718 14.595v-1.354h.388c3.225 0 9.882-1.86 9.882-12.244 0-8.57-5.224-13.182-10.897-13.182-5.985 0-10.464 3.928-10.464 11.754l.045.937zm59.126 0h-3.418C183.722 8.108 187.946 0 197.813 0c8.06 0 14.076 5.073 14.076 13.39 0 7.826-5.419 14.312-13.733 14.595v-1.354h.403c3.224 0 9.882-1.86 9.882-12.244 0-8.57-5.225-13.182-10.897-13.182-5.986 0-10.464 3.928-10.464 11.754l.03.937zm62.589 9.67c-.328.893-.507 1.756-.507 2.396 0 .714.746 1.041 1.358 1.041h.358c.254 0 .358.075.358.209 0 .208-.209.282-.537.282h-9.897c-2 0-2.895-.178-3.836-.684-1.537-.819-2.791-2.574-4.836-5.252-1.508-1.964-3.224-4.463-3.941-5.4-.149-.15-.254-.209-.463-.209l-5.12.045c-.179 0-.253.104-.253.282v.863c0 3.422 0 6.249.179 7.752.104 1.041.328 1.815 1.403 1.963.507.075 1.284.15 1.612.15.209 0 .284.103.284.207 0 .179-.18.283-.568.283h-7.777c-.388 0-.567-.074-.567-.282 0-.105.075-.209.284-.209.328 0 .746-.074 1.075-.149.716-.148.895-.922 1.044-1.963.18-1.503.18-4.315.18-7.752v-2.202h4.358c.314.015 2.956-.119 3.269-.119.866 0 2.911-.372 3.747-.937 1.254-.863 2.732-1.592 2.732-5.088 0-5.847-3.941-7.127-7.762-7.142l-1.404-.044-4.299-.045-2-.015c-.119-.416-.134-.997.269-.997 1.612 0 6.463-.044 7.583-.044 2.254 0 6.045.208 7.941 1.577.896.64 2.776 2.306 3.06 4.746.373 3.184-.776 6.77-6.195 8.51 2.941 3.75 5.255 6.784 7.329 8.986 1.941 2.038 3.478 2.425 4.374 2.574.493.074.896.104 1.149.104.269-.015.672-.044.911-.074 1.642-.208 2.358-1.577 3.015-3.363L256.491 1.4c.403-1.19.537-1.399.761-1.399.209 0 .358.179.791 1.28.538 1.353 6.911 16.097 9.091 21.528 1.284 3.183 2.328 3.749 3.075 3.957.537.179 1.075.208 1.433.208.209 0 .358.03.358.209 0 .208-.328.282-.716.282-.538 0-3.15 0-5.628-.074-.776-.015-1.105.015-1.105-.193 0-.15.03-.209.284-.298.075-.03.284-.178.284-.506 0-.104 0-.327-.075-.461l-8.12-20.174c-.105-.283-.179-.387-.284-.387-.075 0-.179.149-.254.387l-6.687 17.808z" fill="#B1AFA9"/></svg>
